src/cmd/sc_insertobject.svg

<?xml version="1.0" encoding="UTF-8" standalone="no"?>
<svg
   xmlns:dc="http://purl.org/dc/elements/1.1/"
   xmlns:cc="http://creativecommons.org/ns#"
   xmlns:rdf="http://www.w3.org/1999/02/22-rdf-syntax-ns#"
   xmlns:svg="http://www.w3.org/2000/svg"
   xmlns="http://www.w3.org/2000/svg"
   xmlns:sodipodi="http://sodipodi.sourceforge.net/DTD/sodipodi-0.dtd"
   xmlns:inkscape="http://www.inkscape.org/namespaces/inkscape"
   viewBox="0 0 16 16"
   version="1.1"
   id="svg4"
   sodipodi:docname="sc_insertobject.svg"
   inkscape:version="0.92.4 (5da689c313, 2019-01-14)"><metadata
   id="metadata10">
  <rdf:RDF>
    <cc:Work
       rdf:about="">
      <dc:format>image/svg+xml</dc:format>
      <dc:type
         rdf:resource="http://purl.org/dc/dcmitype/StillImage" />
    </cc:Work>
  </rdf:RDF>
</metadata>
<defs
   id="defs8" />
<sodipodi:namedview
   pagecolor="#ffffff"
   bordercolor="#666666"
   borderopacity="1"
   objecttolerance="10"
   gridtolerance="10"
   guidetolerance="10"
   inkscape:pageopacity="0"
   inkscape:pageshadow="2"
   inkscape:window-width="1920"
   inkscape:window-height="1011"
   id="namedview6"
   showgrid="true"
   inkscape:zoom="20.85965"
   inkscape:cx="-1.2390672"
   inkscape:cy="8.7391666"
   inkscape:window-x="0"
   inkscape:window-y="32"
   inkscape:window-maximized="1"
   inkscape:current-layer="svg4">
  <inkscape:grid
     type="xygrid"
     id="grid823" />
</sodipodi:namedview>
/&gt;<path
   d="m 6,9 v 5 h 4 V 12.5 H 9 V 13 H 7 v -3 h 2 v 0.5 h 1 V 9 Z m 5,0 v 1.5 h 1 V 10 h 2 v 3 H 12 V 12.5 H 11 V 14 h 4 V 9 Z m -3,2 v 1 h 5 v -1 z"
   id="path2"
   inkscape:connector-curvature="0"
   style="fill:#232629"
   sodipodi:nodetypes="ccccccccccccccccccccccccccccccc" />
<path
   d="m 5,12.881636 c -0.1942333,-0.0358 -0.3430079,-0.08242 -0.4535299,-0.143356 -0.18345,-0.10116 -0.28727,-0.21286 -0.38482,-0.47266 -0.0976,-0.25979 -0.1598,-0.67323 -0.16019,-1.26562 l -0.004,-5.9999997 c -3.9e-4,-0.59239 0.0626,-1.0057201 0.16019,-1.2656201 0.0976,-0.25991 0.20334,-0.37147 0.38678,-0.47266 0.366,-0.20191 1.19478,-0.24702 2.45349,-0.26172 h 4.5e-4 1.99954 l 0.0021,3.0000001 H 12.00001 L 12.000898,8 H 13 V 5.0000003 l -3,-3 h -3.0039499 -0.00368 c -1.25839,0.0145 -2.17922,-0.0306 -2.93209,0.38477 -0.37643,0.20766 -0.67333,0.5593799 -0.83802,0.9980399 -0.1646902,0.43867 -0.2222602,0.95958 -0.2222602,1.6171901 V 11 c 0,0.65761 0.06152,1.17858 0.2262602,1.61719 0.16471,0.43861 0.4616077,0.788524 0.83802,0.99609 C 4.3484102,13.769958 4.6588798,13.86131 5,13.915138 Z"
   id="path2732-8-9-4"
   style="color:#000000;font-style:normal;font-variant:normal;font-weight:normal;font-stretch:normal;font-size:medium;line-height:normal;font-family:sans-serif;font-variant-ligatures:normal;font-variant-position:normal;font-variant-caps:normal;font-variant-numeric:normal;font-variant-alternates:normal;font-feature-settings:normal;text-indent:0;text-align:start;text-decoration:none;text-decoration-line:none;text-decoration-style:solid;text-decoration-color:#000000;letter-spacing:normal;word-spacing:normal;text-transform:none;writing-mode:lr-tb;direction:ltr;text-orientation:mixed;dominant-baseline:auto;baseline-shift:baseline;text-anchor:start;white-space:normal;shape-padding:0;clip-rule:nonzero;display:inline;overflow:visible;visibility:visible;opacity:1;isolation:auto;mix-blend-mode:normal;color-interpolation:sRGB;color-interpolation-filters:linearRGB;solid-color:#000000;solid-opacity:1;vector-effect:none;fill:#232629;fill-opacity:1;fill-rule:nonzero;stroke:none;stroke-width:1.00007653;stroke-linecap:butt;stroke-linejoin:miter;stroke-miterlimit:4;stroke-dasharray:none;stroke-dashoffset:0;stroke-opacity:1;marker:none;color-rendering:auto;image-rendering:auto;shape-rendering:auto;text-rendering:auto;enable-background:accumulate"
   inkscape:connector-curvature="0"
   sodipodi:nodetypes="cccsscccccccccccccccsscscc" />
</svg>

<svg viewBox="0 0 16 16" xmlns="http://www.w3.org/2000/svg">/&gt;<path d="m3 2v12h1 1v-1h-1v-5-5h5v3h3v2h1v-3l-3-3zm3 7v5h4v-1.5h-1v.5h-2v-3h2v.5h1v-1.5zm5 0v1.5h1v-.5h2v3h-2v-.5h-1v1.5h4v-5zm-3 2v1h5v-1z" fill="#232629"/></svg>
